X: 4
T: The Humours Of Kinvara
R: reel
M: 4/4
L: 1/8
K: Edor
|:BE (3EEE BEdE|BE (3EEE BcdB|cA (3AAA cdec|1(3Bcd AGFD FA:|2(3Bcd ef ~e2 de||
|:~f3e dcec|~f3e d4|~f3e f^gaf|ecAc ~e2de:|


Tune 294	Setting 28290

